X: 17001
T: HeadLifter
R: jig
M: 6/8
K: Dmajor
|:DAd cde|edc dAG|FAd GAd|FAd EAd|
DAd cde|edc de/f/g|agf fed|1 ABc d2 A:|2 ABc d3||
|:def gfe|fed ecA|B/c/df gfg|ad'a c'af|
def gfe|fed ecA|B/c/dB AFE|1 FAc d2A:|2 FAB c2 d||

